IconSet/eva icons.iconjar/icons/file-add.svg

<svg xmlns="http://www.w3.org/2000/svg" viewBox="0 0 24 24"><g data-name="Layer 2"><g data-name="file-add"><rect width="24" height="24" opacity="0"/><path d="M19.74 7.33l-4.44-5a1 1 0 0 0-.74-.33h-8A2.53 2.53 0 0 0 4 4.5v15A2.53 2.53 0 0 0 6.56 22h10.88A2.53 2.53 0 0 0 20 19.5V8a1 1 0 0 0-.26-.67zM14 15h-1v1a1 1 0 0 1-2 0v-1h-1a1 1 0 0 1 0-2h1v-1a1 1 0 0 1 2 0v1h1a1 1 0 0 1 0 2zm.71-7a.79.79 0 0 1-.71-.85V4l3.74 4z"/></g></g></svg>

<svg xmlns="http://www.w3.org/2000/svg" viewBox="0 0 24 24"><defs><style>.cls-1{fill:#fff;opacity:0;}.cls-2{fill:#231f20;}</style></defs><title>file-add</title><g id="Layer_2" data-name="Layer 2"><g id="file-add"><g id="file-add-2" data-name="file-add"><rect class="cls-1" width="24" height="24"/><path class="cls-2" d="M19.74,7.33l-4.44-5A1,1,0,0,0,14.56,2h-8A2.53,2.53,0,0,0,4,4.5v15A2.53,2.53,0,0,0,6.56,22H17.44A2.53,2.53,0,0,0,20,19.5V8A1,1,0,0,0,19.74,7.33ZM14,15H13v1a1,1,0,0,1-2,0V15H10a1,1,0,0,1,0-2h1V12a1,1,0,0,1,2,0v1h1a1,1,0,0,1,0,2Zm.71-7A.79.79,0,0,1,14,7.15V4l3.74,4Z"/></g></g></g></svg>
